svg/weather/cloud_2_line.svg

<?xml version="1.0" encoding="UTF-8"?>
<svg width="24px" height="24px" viewBox="0 0 24 24" version="1.1" xmlns="http://www.w3.org/2000/svg" xmlns:xlink="http://www.w3.org/1999/xlink">
    <title>cloud_2_line</title>
    <g id="Icon" stroke="none" stroke-width="1" fill="none" fill-rule="evenodd">
        <g id="Weather" transform="translate(-769.000000, -192.000000)">
            <g id="cloud_2_line" transform="translate(769.000000, 192.000000)">
                <path d="M24,0 L24,24 L0,24 L0,0 L24,0 Z M12.5935,23.2578 L12.5819,23.2595 L12.5109,23.295 L12.4919,23.2987 L12.4767,23.295 L12.4057,23.2595 C12.3958,23.2564 12.387,23.259 12.3821,23.2649 L12.378,23.2758 L12.3609,23.7031 L12.3659,23.7235 L12.3769,23.7357 L12.4805,23.8097 L12.4953,23.8136 L12.5071,23.8097 L12.6107,23.7357 L12.6233,23.7197 L12.6267,23.7031 L12.6096,23.2758 C12.6076,23.2657 12.601,23.2593 12.5935,23.2578 Z M12.8584,23.1453 L12.8445,23.1473 L12.6598,23.2397 L12.6499,23.2499 L12.6472,23.2611 L12.6651,23.6906 L12.6699,23.7034 L12.6784,23.7105 L12.8793,23.8032 C12.8914,23.8069 12.9022,23.803 12.9078,23.7952 L12.9118,23.7812 L12.8777,23.1665 C12.8753,23.1546 12.8674,23.147 12.8584,23.1453 Z M12.143,23.1473 C12.1332,23.1424 12.1222,23.1453 12.1156,23.1526 L12.1099,23.1665 L12.0758,23.7812 C12.0751,23.7927 12.0828,23.8019 12.0926,23.8046 L12.1083,23.8032 L12.3092,23.7105 L12.3186,23.7024 L12.3225,23.6906 L12.3404,23.2611 L12.3372,23.2485 L12.3278,23.2397 L12.143,23.1473 Z" id="MingCute" fill-rule="nonzero"></path>
                <path d="M17.0033,9 C19.7632,9.00176 22,11.2397 22,14 C22,16.7614 19.7614,19 17,19 L9.5,19 C5.35786,19 2,15.6421 2,11.5 C2,7.35786 5.35786,4 9.5,4 C12.7728,4 15.5543,6.09549 16.5791,9.0175 C16.7202,9.00572 16.8617,8.99996 17.0033,9 Z M4,11.5 C4,8.46243 6.46243,6 9.5,6 C11.8623,6 13.8785,7.49016 14.6567,9.58224 C14.1227,9.86603 13.6465,10.2436 13.2503,10.6924 C13.0313,10.9405 12.8365,11.2107 12.6695,11.4993 C12.393,11.9773 12.5564,12.5891 13.0344,12.8656 C13.5125,13.1421 14.1242,12.9788 14.4008,12.5007 C14.5009,12.3276 14.618,12.1652 14.7498,12.0159 C15.3009,11.3914 16.1035,11 17,11 C18.6569,11 20,12.3431 20,14 C20,15.6569 18.6569,17 17,17 L9.5,17 C6.46243,17 4,14.5376 4,11.5 Z" id="形状" fill="#09244B"></path>
            </g>
        </g>
    </g>
</svg>

<svg xmlns="http://www.w3.org/2000/svg" width="24" height="24"><g fill="none" fill-rule="evenodd"><path d="M24 0v24H0V0h24ZM12.594 23.258l-.012.002-.071.035-.02.004-.014-.004-.071-.036c-.01-.003-.019 0-.024.006l-.004.01-.017.428.005.02.01.013.104.074.015.004.012-.004.104-.074.012-.016.004-.017-.017-.427c-.002-.01-.009-.017-.016-.018Zm.264-.113-.014.002-.184.093-.01.01-.003.011.018.43.005.012.008.008.201.092c.012.004.023 0 .029-.008l.004-.014-.034-.614c-.003-.012-.01-.02-.02-.022Zm-.715.002a.023.023 0 0 0-.027.006l-.006.014-.034.614c0 .012.007.02.017.024l.015-.002.201-.093.01-.008.003-.011.018-.43-.003-.012-.01-.01-.184-.092Z"/><path fill="#09244B" d="M17.003 9A5 5 0 0 1 17 19H9.5a7.5 7.5 0 1 1 7.08-9.982A5.08 5.08 0 0 1 17.002 9ZM4 11.5a5.5 5.5 0 0 1 10.657-1.918 5.02 5.02 0 0 0-1.988 1.917 1 1 0 0 0 1.732 1.002A3.009 3.009 0 0 1 17 11a3 3 0 1 1 0 6H9.5A5.5 5.5 0 0 1 4 11.5Z"/></g></svg>
